icons/outline/hierarchy-3.svg

<!--
category: Design
tags: [relation, above, below, status, society, important]
version: "1.78"
unicode: "f289"
-->
<svg
  xmlns="http://www.w3.org/2000/svg"
  width="24"
  height="24"
  viewBox="0 0 24 24"
  fill="none"
  stroke="currentColor"
  stroke-width="2"
  stroke-linecap="round"
  stroke-linejoin="round"
>
  <path d="M12 5m-2 0a2 2 0 1 0 4 0a2 2 0 1 0 -4 0m-2 7m-2 0a2 2 0 1 0 4 0a2 2 0 1 0 -4 0m6 7m-2 0a2 2 0 1 0 4 0a2 2 0 1 0 -4 0m10 0m-2 0a2 2 0 1 0 4 0a2 2 0 1 0 -4 0m-14 0m-2 0a2 2 0 1 0 4 0a2 2 0 1 0 -4 0m14 -7m-2 0a2 2 0 1 0 4 0a2 2 0 1 0 -4 0m-9 5l2 -3m2 -4l2 -3m2 0l2 3m2 4l2 3m-4 -3l-2 3m-4 -3l2 3" />
</svg>

<!--
category: Design
tags: [relation, above, below, status, society, important]
version: "1.78"
unicode: "f289"
-->
<svg
  xmlns="http://www.w3.org/2000/svg"
  width="24"
  height="24"
  viewBox="0 0 24 24"
  fill="none"
  stroke="currentColor"
  stroke-width="2"
  stroke-linecap="round"
  stroke-linejoin="round"
>
    <path d="M12 5m-2 0a2 2 0 1 0 4 0a2 2 0 1 0 -4 0M8 12m-2 0a2 2 0 1 0 4 0a2 2 0 1 0 -4 0M12 19m-2 0a2 2 0 1 0 4 0a2 2 0 1 0 -4 0M20 19m-2 0a2 2 0 1 0 4 0a2 2 0 1 0 -4 0M4 19m-2 0a2 2 0 1 0 4 0a2 2 0 1 0 -4 0M16 12m-2 0a2 2 0 1 0 4 0a2 2 0 1 0 -4 0M5 17l2 -3M9 10l2 -3M13 7l2 3M17 14l2 3M15 14l-2 3M9 14l2 3" />
</svg>
